source/img/icons/menu.svg

<svg width="24" height="22" viewBox="0 0 24 22" fill="none" xmlns="http://www.w3.org/2000/svg">
<path d="M19.6721 7.43664C21.6273 7.43664 23.213 5.85095 23.213 3.89566C23.213 1.94037 21.6273 0.354675 19.6721 0.354675C17.7168 0.354675 16.1311 1.94037 16.1311 3.89566C16.1311 4.19968 16.1728 4.49178 16.2458 4.77345L7.21751 8.95527C6.57519 8.05214 5.52303 7.46049 4.33078 7.46049C2.37549 7.46049 0.789795 9.04618 0.789795 11.0015C0.789795 12.9568 2.37549 14.5425 4.33078 14.5425C5.52303 14.5425 6.57668 13.9508 7.21751 13.0477L16.2458 17.2295C16.1743 17.5112 16.1311 17.8033 16.1311 18.1073C16.1311 20.0626 17.7168 21.6483 19.6721 21.6483C21.6273 21.6483 23.213 20.0626 23.213 18.1073C23.213 16.152 21.6273 14.5663 19.6721 14.5663C18.4798 14.5663 17.4262 15.158 16.7853 16.0611L7.75701 11.8793C7.82854 11.5976 7.87176 11.3055 7.87176 11.0015C7.87176 10.6974 7.83003 10.4053 7.75701 10.1237L16.7853 5.94186C17.4262 6.84499 18.4783 7.43664 19.6721 7.43664Z" fill="currentColor"/>
</svg>

<svg width="24" height="22" fill="none" xmlns="http://www.w3.org/2000/svg"><path d="M19.672 7.437a3.541 3.541 0 10-3.54-3.541c0 .304.04.596.114.877L7.218 8.955A3.536 3.536 0 004.33 7.46a3.541 3.541 0 000 7.083 3.534 3.534 0 002.887-1.495l9.028 4.182a3.554 3.554 0 00-.115.877 3.541 3.541 0 103.541-3.54 3.534 3.534 0 00-2.887 1.494L7.757 11.88a3.52 3.52 0 00.115-.877c0-.305-.042-.597-.115-.878l9.028-4.182a3.532 3.532 0 002.887 1.495z" fill="currentColor"/></svg>
